X:1
%%etbk:tnset id:1,pos:4,rep:3
T:Paddy O'Keefe's Slide #3
K:D
R:Slide
M:12/8
dcd e2 d c2 e E F| GFG B2 A F2 D DFA|dcd e2 d c2 e EFG|
|1:A2 F GFE D3 D3:||2:A2 F GFE D3 a2 g:||
f d edc def a2 f|e2 c A2 c e2 f gfe|f2 d edc def a2 f|
|1 e2 c ABc d3 a2 g:||2 e2 c ABc d3 d3:||